static/img/kroki/1b40bfcace3f75ebe006022f429e6a4e.svg

<?xml version="1.0" encoding="us-ascii" standalone="no"?><svg xmlns="http://www.w3.org/2000/svg" xmlns:xlink="http://www.w3.org/1999/xlink" contentStyleType="text/css" height="374px" preserveAspectRatio="none" style="width:230px;height:374px;" version="1.1" viewBox="0 0 230 374" width="230px" zoomAndPan="magnify"><defs/><g><!--class kubernetes_resource--><g id="elem_kubernetes_resource"><rect codeLine="23" fill="#3D176E" height="39.7891" id="kubernetes_resource" rx="2.5" ry="2.5" style="stroke:#000D19;stroke-width:0.5;" width="216" x="7" y="167.79"/><ellipse cx="22" cy="187.6845" fill="#ADD1B2" rx="11" ry="11" style="stroke:#181818;stroke-width:1.0;"/><path d="M24.9688,193.3252 Q24.3906,193.622 23.75,193.7627 Q23.1094,193.9189 22.4063,193.9189 Q19.9063,193.9189 18.5781,192.2783 Q17.2656,190.622 17.2656,187.497 Q17.2656,184.372 18.5781,182.7158 Q19.9063,181.0595 22.4063,181.0595 Q23.1094,181.0595 23.75,181.2158 Q24.4063,181.372 24.9688,181.6689 L24.9688,184.3877 Q24.3438,183.8095 23.75,183.5439 Q23.1563,183.2627 22.5313,183.2627 Q21.1875,183.2627 20.5,184.3408 Q19.8125,185.4033 19.8125,187.497 Q19.8125,189.5908 20.5,190.6689 Q21.1875,191.7314 22.5313,191.7314 Q23.1563,191.7314 23.75,191.4658 Q24.3438,191.1845 24.9688,190.6064 L24.9688,193.3252 Z " fill="#000000"/><text fill="#D9B8FF" font-family="Helvetica" font-size="17" lengthAdjust="spacing" textLength="174" x="41" y="193.5698">kubernetes_resource</text></g><!--class kubernetes_secret--><g id="elem_kubernetes_secret"><rect codeLine="26" fill="#3D176E" height="39.7891" id="kubernetes_secret" rx="2.5" ry="2.5" style="stroke:#000D19;stroke-width:0.5;" width="195" x="17.5" y="328.58"/><ellipse cx="32.5" cy="348.4745" fill="#ADD1B2" rx="11" ry="11" style="stroke:#181818;stroke-width:1.0;"/><path d="M35.4688,354.1152 Q34.8906,354.412 34.25,354.5527 Q33.6094,354.7089 32.9063,354.7089 Q30.4063,354.7089 29.0781,353.0683 Q27.7656,351.412 27.7656,348.287 Q27.7656,345.162 29.0781,343.5058 Q30.4063,341.8495 32.9063,341.8495 Q33.6094,341.8495 34.25,342.0058 Q34.9063,342.162 35.4688,342.4589 L35.4688,345.1777 Q34.8438,344.5995 34.25,344.3339 Q33.6563,344.0527 33.0313,344.0527 Q31.6875,344.0527 31,345.1308 Q30.3125,346.1933 30.3125,348.287 Q30.3125,350.3808 31,351.4589 Q31.6875,352.5214 33.0313,352.5214 Q33.6563,352.5214 34.25,352.2558 Q34.8438,351.9745 35.4688,351.3964 L35.4688,354.1152 Z " fill="#000000"/><text fill="#D9B8FF" font-family="Helvetica" font-size="17" lengthAdjust="spacing" textLength="153" x="51.5" y="354.3598">kubernetes_secret</text></g><!--class resource--><g id="elem_resource"><rect codeLine="29" fill="#3D176E" height="39.7891" id="resource" rx="2.5" ry="2.5" style="stroke:#000D19;stroke-width:0.5;" width="113" x="58.5" y="7"/><ellipse cx="73.5" cy="26.8945" fill="#ADD1B2" rx="11" ry="11" style="stroke:#181818;stroke-width:1.0;"/><path d="M76.4688,32.5352 Q75.8906,32.832 75.25,32.9727 Q74.6094,33.1289 73.9063,33.1289 Q71.4063,33.1289 70.0781,31.4883 Q68.7656,29.832 68.7656,26.707 Q68.7656,23.582 70.0781,21.9258 Q71.4063,20.2695 73.9063,20.2695 Q74.6094,20.2695 75.25,20.4258 Q75.9063,20.582 76.4688,20.8789 L76.4688,23.5977 Q75.8438,23.0195 75.25,22.7539 Q74.6563,22.4727 74.0313,22.4727 Q72.6875,22.4727 72,23.5508 Q71.3125,24.6133 71.3125,26.707 Q71.3125,28.8008 72,29.8789 Q72.6875,30.9414 74.0313,30.9414 Q74.6563,30.9414 75.25,30.6758 Q75.8438,30.3945 76.4688,29.8164 L76.4688,32.5352 Z " fill="#000000"/><text fill="#D9B8FF" font-family="Helvetica" font-size="17" lengthAdjust="spacing" textLength="71" x="92.5" y="32.7798">resource</text></g><!--reverse link resource to kubernetes_resource--><g id="link_resource_kubernetes_resource"><path codeLine="32" d="M115,65.05 C115,95.57 115,136.9 115,167.46 " fill="none" id="resource-backto-kubernetes_resource" style="stroke:#FFAF37;stroke-width:2.0;"/><polygon fill="none" points="115,47.05,109,65.05,121,65.05,115,47.05" style="stroke:#FFAF37;stroke-width:2.0;"/></g><!--reverse link kubernetes_resource to kubernetes_secret--><g id="link_kubernetes_resource_kubernetes_secret"><path codeLine="33" d="M115,225.84 C115,256.36 115,297.69 115,328.25 " fill="none" id="kubernetes_resource-backto-kubernetes_secret" style="stroke:#FFAF37;stroke-width:2.0;"/><polygon fill="none" points="115,207.84,109,225.84,121,225.84,115,207.84" style="stroke:#FFAF37;stroke-width:2.0;"/></g><!--SRC=[XP9BRy8m48Jl-HMME2E5eXQGUW6aghsWglHUcNXCh2GsMc-AwEE_bpGjCZ6FetS-xyokDZSA0jM6Tw92jGBvn1V6RYJ9Iao9t7RkIaUYfxNKmr5NV72Mhm8BMK4yedm7cqnsYTVSP8M5z-8ca6OoAzRaQglQzapI-hq4om4rBwNtKsOogveHX56JrLZhBjbjsXkgmUWE4UP8WVwGD4tLOD95hbfTdFj0BCq7n21Ssi8nefYHnIzrCML3126ZGV_rincVfLB6hiLjK7jfCv457TMNkLHksz1QbZwqyGo2uzq6ysWgJCPAZqx2J-VW96jM9ufwVwaM3Fz6yAwc3E8pIRvZsICZS2WUVpYyxh_w_VwfniafiuXkVP8V]--></g></svg>

<svg xmlns="http://www.w3.org/2000/svg" width="230" height="374" viewBox="0 0 230 374"><rect width="216" height="39.789" x="7" y="167.79" fill="#3D176E" rx="2.5" ry="2.5" style="stroke:#000d19;stroke-width:.5"/><circle cx="22" cy="187.685" r="11" fill="#ADD1B2" style="stroke:#181818;stroke-width:1"/><path d="M24.969 193.325q-.578.297-1.219.438-.64.156-1.344.156-2.5 0-3.828-1.64-1.312-1.657-1.312-4.782t1.312-4.781q1.328-1.656 3.828-1.656.703 0 1.344.156.656.156 1.219.453v2.719q-.625-.578-1.219-.844-.594-.281-1.219-.281-1.343 0-2.031 1.078-.687 1.062-.687 3.156t.687 3.172q.688 1.062 2.031 1.062.625 0 1.219-.265.594-.281 1.219-.86z"/><text x="41" y="193.57" fill="#D9B8FF" font-family="Helvetica" font-size="17" textLength="174">kubernetes_resource</text><rect width="195" height="39.789" x="17.5" y="328.58" fill="#3D176E" rx="2.5" ry="2.5" style="stroke:#000d19;stroke-width:.5"/><circle cx="32.5" cy="348.474" r="11" fill="#ADD1B2" style="stroke:#181818;stroke-width:1"/><path d="M35.469 354.115q-.578.297-1.219.438-.64.156-1.344.156-2.5 0-3.828-1.64-1.312-1.657-1.312-4.782t1.312-4.781q1.328-1.656 3.828-1.656.703 0 1.344.156.656.156 1.219.453v2.719q-.625-.579-1.219-.844-.594-.281-1.219-.281-1.343 0-2.031 1.078-.687 1.062-.687 3.156t.687 3.172q.688 1.062 2.031 1.062.625 0 1.219-.265.594-.281 1.219-.86z"/><text x="51.5" y="354.36" fill="#D9B8FF" font-family="Helvetica" font-size="17" textLength="153">kubernetes_secret</text><rect width="113" height="39.789" x="58.5" y="7" fill="#3D176E" rx="2.5" ry="2.5" style="stroke:#000d19;stroke-width:.5"/><circle cx="73.5" cy="26.895" r="11" fill="#ADD1B2" style="stroke:#181818;stroke-width:1"/><path d="M76.469 32.535q-.578.297-1.219.438-.64.156-1.344.156-2.5 0-3.828-1.64-1.312-1.657-1.312-4.782t1.312-4.781q1.328-1.656 3.828-1.656.703 0 1.344.156.656.156 1.219.453v2.719q-.625-.578-1.219-.844-.594-.281-1.219-.281-1.344 0-2.031 1.078-.687 1.062-.687 3.156T72 29.879q.688 1.062 2.031 1.062.625 0 1.219-.265.594-.281 1.219-.86z"/><text x="92.5" y="32.78" fill="#D9B8FF" font-family="Helvetica" font-size="17" textLength="71">resource</text><path fill="none" d="M115 65.05v102.41m0-120.41-6 18h12zm0 178.79v102.41m0-120.41-6 18h12z" style="stroke:#ffaf37;stroke-width:2"/></svg>
